X:7888
T:Der Wind, der weht
C:anon.
O:Germany
N:1544
R:Tanzlied
Z:Transcribed by Frank Nordberg - http://www.musicaviva.com
F:http://abc.musicaviva.com/tunes/germany/der-wind-der-weht.abc
M:3/4
L:1/4
K:G
G|d2d|d2G|d2d|d2d|
w:Der Wind, der weht, der Hahn, der kr\"aht, der
c2d|e2d|d3|B2B|
w:Fuchs l\"auft in dem Krau-te. Ach
B2B|B2B|d2d|A2A|
w:Maid-lein, tu die T\"u-re zu, bring
A2c|B2A|G3|G2|]
w:Fl\"o-te her und Lau-te.
W:
W:Der Wind, der weht, der Hahn, der kr\"aht,
W:der Fuchs l\"auft in dem Kraute.
W:Ach Maidlein, tu die T\"ure zu,
W:bring Fl\"ote her und Laute.
W:
W:
W:  From Musica Viva - http://www.musicaviva.com
W:  the Internet center for free sheet music downloads.
